!!!OTL: Gretlein
!!!ARE: Europa, Mitteleuropa, Deutschland
!!!SCT: A0053A
!!!YEM: Copyright 1995, estate of Helmut Schaffrath.
**kern
*ICvox
*Ivox
!! Mixed meters:  4/2; 6/2
*M6/2
*k[b-]
*F:
{2cc
=1
1cc
1cc
2b-
2a
=2
1f
2g
1f}
{2f
=3
1cc
1cc
2b-
2a
=4
2.g
4a
2b-
1a}
{2g
=5
*M4/2
2f
2f
2e
2c
=6
*M6/2
1d
2e
1f}
{2a
=7
*M4/2
2g
2g
2f
2e
=8
*M6/2
1d
1c
2r}
{2cc
=9
*M4/2
2cc
2cc
2b-
2a
=10
1g
1.f}
==
!!!AGN: Romanze, Ballade, Lied
!! Melodie bei Forster III. 1549 No. 66.
!!!ONB: ESAC (Essen Associative Code) Database: ALTDEU
!!!AMT: irregular
!!!AIN: vox
!!!EED: Helmut Schaffrath
!!!EEV: 1.0
*-
